X:1
T: Bob with the One Horn
C:
R:Reel
Q: 232
K:Gm
M:4/4
L:1/8
|:DG GF DG GA|F2AF cF AF|DG GF DG Gg|fd cA BGG2|
DG GF DG GA|F2AF cF AF|DG GF DG Gg|fd cA BGG2|
g2bg dg bg|f2af cf af|g2bg dg bg|ag fa g2ga|
((3bag) ((3agf) gf gd|AF FA cA FA|DG GF DG Gg|fd cA BGG2:|
